X: 1371
T: the Ivy Leaf - 2nd Setting   #2
R: reel
%S: s:2 b:10(5+5)
B: O'Neill's 1850 #1371
O: F.O'Neill
Z: Trish O'Neil
N: Compacted via repeat with multiple endings [JC]
M: C|
L: 1/8
K: A
"^A"|: A2(ed) cdec | A2(ec) dBGB | A2(ed) cdeA | AGEF GABG "^B":: (ea)ag edBd |
| gfgd BGBd |1 (ea)ag edBA | AGEF GABG :|2 AGAB cBcd | egfa ged"_d.C."B |]
